X:763
M:6/8
L:1/8
K:D
|:faf d2f|gbg e2g|faf d2f|ecA A2g|faf d2f|gbg e2g|f2d g2f|edc d3:|

